X:1
T:Clarissa's Waltz
M:3/4
L:1/8
Q:160
C:(c) Greg Anderson, 20 Oct 1999
R:Waltz
N:For my daughter, Clarissa
K:Em
B,E GA BG|(3FGF E2 E2|EG Be de|B6|AG FE FA|GA EG e2|
!gf ec AG|F4- FG|B,E GA BG|(3FGF E2 E2|EG Be de|B4- Bd|
!cB AG AB|GA EG e2|gf eB GF|E3 G FE|:DF Ac BA|B2 G2 E2|
!^DE FB AG|EF GA B2|cB A^d eB|GF E2 E2|^DE FB FG|1E3 G FE:|2E6||
